X: 29190
T: New Concert Flute, The
R: jig
M: 6/8
K: Cmajor
|:G3 DGB|dBG cAG|F3 CFA|cAF ABc|
G3 DGB|dBG ABc|dge f2 d|cAF G2 D:|
|:GBd g^fg|g^fd cBc|FAc fef|cAF ABc|
GBd g^fg|gfd cBc|dg^f dcA|AG^F G2 D:|

